packages/core/src/svgs/nabox.svg

<svg width="24" height="24" viewBox="0 0 24 24" fill="none" xmlns="http://www.w3.org/2000/svg">
<g clip-path="url(#clip0_31_14549)">
<path d="M0 0H24V24H0V0Z" fill="#F0F3FA"/>
<path d="M5.14282 8.57129L11.5714 12.4284V19.7141L9.42854 18.4284V13.2856L7.28568 11.9999V17.1427L5.14282 15.857V8.57129Z" fill="#2AC98B"/>
<path fill-rule="evenodd" clip-rule="evenodd" d="M12.4286 19.7142V11.9999L5.57141 7.9285L12 4.28564L18.8571 8.14279V15.8571L16.7143 17.1428V9.4285L14.5714 10.7142V18.4285L12.4286 19.7142ZM9.85713 7.9285L12 6.64279L14.5714 8.14279L12.4286 9.4285L9.85713 7.9285Z" fill="#2AC98B"/>
</g>
<defs>
<clipPath id="clip0_31_14549">
<rect width="24" height="24" fill="white"/>
</clipPath>
</defs>
</svg>

<svg xmlns="http://www.w3.org/2000/svg" width="24" height="24" fill="none" viewBox="0 0 24 24"><g clip-path="url(#a)"><path fill="#F0F3FA" d="M0 0h24v24H0z"/><path fill="#2AC98B" d="m5.143 8.571 6.428 3.857v7.286L9.43 18.428v-5.142L7.286 12v5.143l-2.143-1.286z"/><path fill="#2AC98B" fill-rule="evenodd" d="M12.429 19.714V12L5.57 7.928 12 4.287l6.857 3.857v7.714l-2.143 1.286V9.428l-2.143 1.286v7.714zM9.857 7.93 12 6.643l2.571 1.5-2.142 1.285z" clip-rule="evenodd"/></g><defs><clipPath id="a"><path fill="#fff" d="M0 0h24v24H0z"/></clipPath></defs></svg>
